X:262
T:The Galtee Reel
M:C|
L:1/8
K:C
"Am"aged cABG|EAAA EAAA|aged cABG|"Em"EGGG EGGG|
"Am"aged cABG|eaag a3 a|bgag egdg|"Em"edcA "Am"EA A2:|
|:"Am"c2 cB cded|cAAA cAGA|cAAA cded|cABG "Em"EGGG|
"Am"cAAA cded|cAAA a3 a|bgag egdg|"Em"edcA "Am"EA A2:|
